src/components/Icon/assets/windows.svg

<svg width="24" height="24" viewBox="0 0 24 24" fill="none" xmlns="http://www.w3.org/2000/svg">
<path fill-rule="evenodd" clip-rule="evenodd" d="M21.0002 11.5733V2.96631L11.2232 4.41031V11.6143L21.0002 11.5733ZM3.0005 5.62621L10.3615 4.53821V11.6172L3.0005 11.6482V5.62621ZM3.0002 18.513V12.421L10.3612 12.451V19.544L3.0002 18.513ZM20.9998 21.0341L11.2228 19.6651V12.4551L20.9998 12.4961V21.0341Z" fill="#65676A"/>
</svg>

<svg xmlns="http://www.w3.org/2000/svg" width="24" height="24" viewBox="0 0 24 24">
    <path fill="#65676A" fill-rule="evenodd" d="M11.223 12.455l9.777.041v8.538l-9.777-1.369v-7.21zM3 12.421l7.361.03v7.093l-7.36-1.031v-6.092zm7.361-7.883v7.08l-7.36.03V5.626l7.36-1.088zm10.64-1.572v8.607l-9.778.041V4.41L21 2.966z"/>
</svg>
